X:1
T:Title
L:1/8
M:6/8
K:F
V:1 treble nm="Grand Piano"
V:1
 z3[Q:1/4=100] A,DF | A2 B G2 F | ED^C E3 | D3 DFA | d2 e d2 c/=B/ | c2 B/A/ B3 | A3 GAB | %7
 A2 G/F/ A2 G/F/ | G2 E/F/ G2 ^F | F3 FED | E3 GFE | F3 AG^F | GFE FED | ED^C E3 | %14
[M:15/16] D3/2- D3 z3 |] %15

